_includes/icons/color-paint-brush.svg

<svg fill="#666" height="50" viewBox="0 0 48 48" width="50" xmlns="http://www.w3.org/2000/svg"><path d="m33.375 30-14.375-14.375 10.628906-10.625 14.371094 14.371094z" fill="#ffcc80"/><path d="m19 15.625-3.828125 3.835938c-.222656.21875-.285156.554687-.160156.839843 1.28125 2.921875 2.257812 6.625 1.617187 7.265625-1.429687 1.433594-2.847656 2.019532-4.214843 2.585938-1.125.464844-2.1875.90625-3.050782 1.769531-2.914062 2.914063-4.574218 7.746094-2.300781 10.019531.691406.691407 1.6875 1.058594 2.878906 1.058594 2.300782 0 5.101563-1.316406 7.144532-3.355469.945312-.949218 1.648437-2.421875 2.324218-3.84375.621094-1.308593 1.261719-2.660156 2.027344-3.421875.183594-.1875.5625-.289062 1.085938-.289062 2.3125 0 6.105468 1.867187 6.144531 1.886719.292969.144531.644531.089843.875-.140625l3.828125-3.835938zm-7.71875 24.101563c-1.105469 0-2-.898438-2-2 0-1.105469.894531-2 2-2s2 .894531 2 2c0 1.101562-.894531 2-2 2z" fill="#ff5722"/><path d="m44 19.371094-14.371094-14.371094-5.007812 5.007813c.007812.007812.011719.015625.019531.023437-.03125.023438-.070312.035156-.097656.0625-1.121094 1.125-1.652344 2.851563-.324219 4.179688.003906.003906.007813.007812.015625.011718.125.128907.265625.226563.410156.308594.015625.007813.03125.015625.046875.023438.875.476562 1.96875.222656 2.789063-.113282.023437-.011718.050781-.023437.074219-.03125.171875-.074218.328125-.148437.46875-.21875l.09375-.046875c.222656-.117187.394531-.222656.488281-.28125 1.710937-1.09375 2.449219-1.066406 2.519531-1.027343.023438.054687.039063.140625.035156.265625-.019531.386718-.222656 1.171875-.886718 2.746093l-.058594.136719c-.097656.226563-.167969.441406-.222656.648438-.371094 1.433593.226562 2.324218.652343 2.753906.804688.808594 1.929688.523437 2.832032.296875.808593-.203125 1.355468-.316406 1.625-.050781.082031.082031.128906.195312.152343.332031.066407.402344-.089843 1-.230468 1.546875-.238282.902344-.488282 1.835937.152343 2.476562.105469.105469.21875.195313.335938.269532.0625.042968.125.070312.1875.101562.054687.027344.105469.058594.160156.082031.089844.035157.183594.0625.277344.085938.023437.007812.054687.015625.082031.019531.101563.027344.210938.039063.320313.050781h.023437.003906c.0625.003907.125.015625.1875.015625 1.515625 0 3.160157-1.207031 3.425782-1.472656.105468-.101562.160156-.234375.191406-.371094l.328125-.15625z" fill="#ff9800"/><path d="m31.28125 32.09375-14.371094-14.375 2.808594-2.808594 14.371094 14.375z" fill="#dd2c00"/></svg>

<svg xmlns="http://www.w3.org/2000/svg" viewBox="0 0 48 48" width="50" height="50" fill="#666"><path d="M 33.375 30 L 19 15.625 L 29.628906 5 L 44 19.371094 Z" fill="#ffcc80"/><path d="M 19 15.625 L 15.171875 19.460938 C 14.949219 19.679688 14.886719 20.015625 15.011719 20.300781 C 16.292969 23.222656 17.269531 26.925781 16.628906 27.566406 C 15.199219 29 13.78125 29.585938 12.414063 30.152344 C 11.289063 30.617188 10.226563 31.058594 9.363281 31.921875 C 6.449219 34.835938 4.789063 39.667969 7.0625 41.941406 C 7.753906 42.632813 8.75 43 9.941406 43 C 12.242188 43 15.042969 41.683594 17.085938 39.644531 C 18.03125 38.695313 18.734375 37.222656 19.410156 35.800781 C 20.03125 34.492188 20.671875 33.140625 21.4375 32.378906 C 21.621094 32.191406 22 32.089844 22.523438 32.089844 C 24.835938 32.089844 28.628906 33.957031 28.667969 33.976563 C 28.960938 34.121094 29.3125 34.066406 29.542969 33.835938 L 33.371094 30 Z M 11.28125 39.726563 C 10.175781 39.726563 9.28125 38.828125 9.28125 37.726563 C 9.28125 36.621094 10.175781 35.726563 11.28125 35.726563 C 12.386719 35.726563 13.28125 36.621094 13.28125 37.726563 C 13.28125 38.828125 12.386719 39.726563 11.28125 39.726563 Z" fill="#ff5722"/><path d="M 44 19.371094 L 29.628906 5 L 24.621094 10.007813 C 24.628906 10.015625 24.632813 10.023438 24.640625 10.03125 C 24.609375 10.054688 24.570313 10.066406 24.542969 10.09375 C 23.421875 11.21875 22.890625 12.945313 24.21875 14.273438 C 24.222656 14.277344 24.226563 14.28125 24.234375 14.285156 C 24.359375 14.414063 24.5 14.511719 24.644531 14.59375 C 24.660156 14.601563 24.675781 14.609375 24.691406 14.617188 C 25.566406 15.09375 26.660156 14.839844 27.480469 14.503906 C 27.503906 14.492188 27.53125 14.480469 27.554688 14.472656 C 27.726563 14.398438 27.882813 14.324219 28.023438 14.253906 C 28.054688 14.238281 28.085938 14.222656 28.117188 14.207031 C 28.339844 14.089844 28.511719 13.984375 28.605469 13.925781 C 30.316406 12.832031 31.054688 12.859375 31.125 12.898438 C 31.148438 12.953125 31.164063 13.039063 31.160156 13.164063 C 31.140625 13.550781 30.9375 14.335938 30.273438 15.910156 L 30.214844 16.046875 C 30.117188 16.273438 30.046875 16.488281 29.992188 16.695313 C 29.621094 18.128906 30.21875 19.019531 30.644531 19.449219 C 31.449219 20.257813 32.574219 19.972656 33.476563 19.746094 C 34.285156 19.542969 34.832031 19.429688 35.101563 19.695313 C 35.183594 19.777344 35.230469 19.890625 35.253906 20.027344 C 35.320313 20.429688 35.164063 21.027344 35.023438 21.574219 C 34.785156 22.476563 34.535156 23.410156 35.175781 24.050781 C 35.28125 24.15625 35.394531 24.246094 35.511719 24.320313 C 35.574219 24.363281 35.636719 24.390625 35.699219 24.421875 C 35.753906 24.449219 35.804688 24.480469 35.859375 24.503906 C 35.949219 24.539063 36.042969 24.566406 36.136719 24.589844 C 36.160156 24.597656 36.191406 24.605469 36.21875 24.609375 C 36.320313 24.636719 36.429688 24.648438 36.539063 24.660156 C 36.546875 24.660156 36.554688 24.660156 36.5625 24.660156 L 36.566406 24.660156 C 36.628906 24.664063 36.691406 24.675781 36.753906 24.675781 C 38.269531 24.675781 39.914063 23.46875 40.179688 23.203125 C 40.285156 23.101563 40.339844 22.96875 40.371094 22.832031 L 40.699219 22.675781 Z" fill="#ff9800"/><path d="M 31.28125 32.09375 L 16.910156 17.71875 L 19.71875 14.910156 L 34.089844 29.285156 Z" fill="#dd2c00"/></svg>
